pro/src/icons/full-logout.svg

<svg width="48" height="48" viewBox="0 0 48 48" fill="none" xmlns="http://www.w3.org/2000/svg">
<path id="icon" fill-rule="evenodd" clip-rule="evenodd" d="M4 5.46341C4 4.65519 4.67157 4 5.5 4H27.5C28.3284 4 29 4.65519 29 5.46341V17.7733C29 18.5815 28.3284 19.2367 27.5 19.2367C26.6716 19.2367 26 18.5815 26 17.7733V6.92683H11.6732L20.6375 8.17188C21.1318 8.24072 21.5 8.66333 21.5 9.16235V41.0732H26V30.2267C26 29.4185 26.6716 28.7633 27.5 28.7633C28.3284 28.7633 29 29.4185 29 30.2267V42.5366C29 43.3448 28.3284 44 27.5 44H5.5C4.67157 44 4 43.3448 4 42.5366V5.46341ZM38.2249 17.4576C37.5844 16.8474 36.5462 16.8476 35.906 17.4574C35.2659 18.0672 35.2656 19.0562 35.9062 19.6664L38.8153 22.4377L24.4 22.438C24.1791 22.438 24 22.617 24 22.8379L24 23.9998L24 25.1626C24 25.3835 24.1791 25.5624 24.4 25.5624L38.8156 25.5617L35.9058 28.3335C35.2657 28.9433 35.2654 29.9323 35.906 30.5424C36.5465 31.1526 37.5847 31.1524 38.2249 30.5426L43.2278 25.7768C44.2572 24.7962 44.2575 23.2041 43.2277 22.2232L38.2249 17.4576Z" fill="currentColor"/>
</svg>

<svg xmlns="http://www.w3.org/2000/svg" width="48" height="48" fill="none"><path id="icon" fill="currentColor" fill-rule="evenodd" d="M4 5.463C4 4.655 4.672 4 5.5 4h22c.828 0 1.5.655 1.5 1.463v12.31c0 .808-.672 1.464-1.5 1.464s-1.5-.655-1.5-1.464V6.927H11.673l8.965 1.245a1 1 0 0 1 .862.99v31.911H26V30.227c0-.808.672-1.464 1.5-1.464s1.5.656 1.5 1.464v12.31c0 .808-.672 1.463-1.5 1.463h-22c-.828 0-1.5-.655-1.5-1.463zm34.225 11.995a1.7 1.7 0 0 0-2.319 0 1.51 1.51 0 0 0 0 2.208l2.91 2.772H24.4a.4.4 0 0 0-.4.4v2.325c0 .22.18.4.4.4l14.416-.001-2.91 2.771a1.51 1.51 0 0 0 0 2.21c.64.61 1.679.61 2.319 0l5.003-4.766a2.43 2.43 0 0 0 0-3.554z" clip-rule="evenodd"/></svg>
